X:1
T:Title
%%score 1 { 2 | 3 }
L:1/8
M:3/4
K:F
V:1 treble nm="Grand Piano, Piano"
V:2 bass nm="Grand Piano, Piano"
V:3 bass 
V:1
 z2 z2[Q:1/4=100] [CF][CG] | [FA]2 [FA]2 [EG]2 | F4 F[FA] | [Ec]2 [Ec]2 [EB]2 |[M:2/4] [FA]4 | %5
w: 1.~When~ we~|walk~ with~ the~|Lord~ in~ the~|light~ of~ his~|word,~|
[M:1/4] [FA][FA] |[M:3/4] [FB]2 [Fd]2 [FB]2 | [FA]2 [Fc]2 [FA]2 |[M:2/4] [EG]4 |[M:1/4] [CF][CG] | %10
w: what~ a~|glo ry~ he~|sheds~ on~ our~|way!~|While~ we~|
[M:3/4] [FA]2 [FA]2 [EG]2 | F4 F[FA] | [Ec]2 [Ec]2 [EB]2 |[M:2/4] [FA]4 |[M:1/4] [FA][FA] | %15
w: do~ his~ good~|will,~ he~ a|bides~ with~ us~|still,~|and~ with~|
[M:3/4] [DB]2 [Fd]2 [FB]2 | [FA]2 [CF]2 [CG]2 | [CF]6 | [Ec]2 [EG]2 [Ec]2 | [FA]4 [FA][FA] | %20
w: all~ who~ will~|trust~ and~ o|bey.~|||
 [^Fd]2 [FA]2 [Fc]2 | [GB]4 [GB][GB] | [GB]2 [FA]2 [EG]2 |[M:7/8] [FA]2 [Fc]3 F[FG] | %24
w: ||||
[M:3/4] [FA]2 [CF]2 [CG]2 |[M:2/4] [CF]4 |] %26
w: ||
V:2
 z2 z2 A,B, | C2 C2 B,2 | A,4 A,[K:treble]C | C2 G,2 C2 |[M:2/4] C4 |[M:1/4] CC | %6
[M:3/4] D2 B,2 D2 | C2 A,2 C2 |[M:2/4] C4 |[M:1/4][K:bass] A,B, |[M:3/4] C2 C2 B,2 | %11
 A,4 A,[K:treble]C | C2 G,2 C2 |[M:2/4] C4 |[M:1/4] CC |[M:3/4] D2 B,2 D2 | C2[K:bass] A,2 B,2 | %17
 A,6 | G,2 C2[K:treble] C2 | C4 CC | A,2 D2 D2 | D4 CC | C2 C2 C2 |[M:7/8] C2[K:bass] A,3 CD | %24
[M:3/4] C2 A,2 B,2 |[M:2/4] A,4 |] %26
V:3
 z2 z2 F,F, | F,2 F,2 C,2 | F,4 F,F, | C,2 C,2 C,2 |[M:2/4] F,4 |[M:1/4] F,F, | %6
[M:3/4] B,,2 B,,2 B,,2 | F,2 F,2 F,2 |[M:2/4] C,4 |[M:1/4] F,F, |[M:3/4] F,2 F,2 C,2 | F,4 F,F, | %12
 C,2 C,2 C,2 |[M:2/4] F,4 |[M:1/4] F,F, |[M:3/4] B,,2 B,,2 B,,2 | C,2 C,2 C,2 | [F,,F,]6 | %18
 C,2 C,2 C,2 | F,4 F,_E, | D,2 D,2 D,2 | G,4 E,D, | C,2 C,2 C,2 |[M:7/8] F,2 F,3 A,,B,, | %24
[M:3/4] C,2 C,2 C,2 |[M:2/4] [F,,F,]4 |] %26

